X: 7928
T: Concertina, The
R: reel
M: 4/4
K: Dmajor
|:A2FA BAFG|A2FA BAFA|B2cA BAcA|BAcA BAFG|
A2FA BAFG|A2FA BAFE|FABc dedB|AFEF D4:|
|:Ad ~d2 Ad ~d2|AddA BAFA|B2cA BAcA|BAcA BAFG|
Ad ~d2 Ad ~d2|Addc d3B|A2FA BcdB|AFEF D4:|

